X:1
T:The Road Tae Dundee
M:6/8
L:1/8
K:C
 G| E3/2 A/2 A A3/2 G/2 A| B3/2 A/2 G G3/2 A/2 B| c3/2 d/2 c B3/2 A/2 G|\
 A3/2 G/2 E E2 D/2D/2| E3/2 A/2 A A3/2 G/2 A| B3/2 A/2 G G3/2 A/2 B|\
 c3/2 d/2 c B3/2 A/2 G| A3/2 G/2 E E2 D| E3/2 e/2 e e3/2 d/2 c| B3/2 A/2 G B/2 d3/2 A|\
 B3/2 e/2 e e3/2 d/2 c| B3/2 G/2 B d2 A| E3/2 e/2 e edc| B3/2 A/2 G G3/2 A/2 A|\
 c3/2 d/2 c BAG| A3/2 G/2 E E2|
